X:1
T:O Helga Natt
T:O Helga Natt
T:Cantique de Noël
T:Adolphe Adam
T:Sv. text: Augustin Kock 
C:Adolphe Adam
Z:Mary Cappeau
%%score 1 { ( 2 6 ) | ( 3 4 5 ) }
L:1/8
Q:1/4=60
M:4/4
K:C
V:1 treble nm="Röst" snm="Så."
V:2 treble nm="Piano" snm="Pno."
V:6 treble 
V:3 bass 
V:4 bass 
V:5 bass 
V:1
"^Andante Maestoso" z8 |: z2 z3/2 E/ E2- E>G | G2- G>G A>A F>A | c4 G z/ G/ E>D | C2 E>F G2 F>D | %5
w: |O hel- * ga|natt,- * o hel- ga stund för|värld- en då Gu- da-|män- skan till jor- den steg|
 C4 z4 | z4 E2 E>E | G2- G>G A>A F>A | c4 G z/ G/ ^F>E | B2 G>A B2 c>B | E4 z2 z!pp! z/ G/ | %11
w: ned!|För att för-|son- * na värl- dens brott och|syn- der för oss han|dö- * dens smä- * rta|led. Och|
 G2 A2 D2 G2 | A>G c>E A2 G z/ G/ | G2 A2 D2 G2 | A>G c>E G2- G z |!f! c4- c2 B>A | %16
w: hop- pets strå- le|går i- gen- om värl- den och|lju- set skim- rar|ö- ver land och hav _|Folk, _ fall nu|
 B4- B2- B z/ B/ | d4- d>A A>A | c4 c2 z3/2 c/ | e4 d3- d/G/ | c4- c2 B>A | G4- G>G A>G | %22
w: ned- der _ och|häl- * sa glatt din|fri- het. O|he- el- * ga|natt _ _ du|fräl- * ning åt oss|
 G6 z3/2 c/ | d4- d3- d/G/ | e4- e2 d2 | c4 B2 c>d | c4 z4 | z8 | z8 | z8 | z8 :| z8 |] %32
w: gav! O|hel- * * ga|att _ du|fräls- ning åt oss|gav!||||||
V:2
!mf![I:staff +1] (3(E,[I:staff -1]C[I:staff +1]G,[I:staff -1](3EC[I:staff +1]G, (3(E,)[I:staff -1]C[I:staff +1]G,)[I:staff -1](3EC[I:staff +1]G, |: %1
 (3(E,[I:staff -1]C[I:staff +1]G,[I:staff -1](3EC[I:staff +1]G, (3(E,)[I:staff -1]C[I:staff +1]G,)[I:staff -1](3EC[I:staff +1]G, | %2
 (3(E,[I:staff -1]C[I:staff +1]G,[I:staff -1](3EC[I:staff +1]G, (3(F,)[I:staff -1]C[I:staff +1]A,)[I:staff -1](3FC[I:staff +1]A, | %3
 (3(E,[I:staff -1]C[I:staff +1]G,[I:staff -1](3EC[I:staff +1]G, (3(E,)[I:staff -1]C[I:staff +1]G,)[I:staff -1](3EC[I:staff +1]G, | %4
 (3(E,[I:staff -1]C[I:staff +1]G,[I:staff -1](3EC[I:staff +1]G, (3(F,)[I:staff -1]B,[I:staff +1]G,)[I:staff -1](3DB,[I:staff +1]G, | %5
 (3(E,[I:staff -1]C[I:staff +1]G,[I:staff -1](3EC[I:staff +1]G, (3(E,)[I:staff -1]C[I:staff +1]G,)[I:staff -1](3EC[I:staff +1]G, | %6
 (3(E,[I:staff -1]C[I:staff +1]G,[I:staff -1](3EC[I:staff +1]G, (3(E,)[I:staff -1]C[I:staff +1]G,)[I:staff -1](3EC[I:staff +1]G, | %7
 (3(E,[I:staff -1]C[I:staff +1]G,[I:staff -1](3EC[I:staff +1]G, (3(F,)[I:staff -1]C[I:staff +1]A,)[I:staff -1](3FC[I:staff +1]A, | %8
 (3(E,[I:staff -1]C[I:staff +1]G,[I:staff -1](3EC[I:staff +1]G, (3(E,)^A,G,)[I:staff -1](3E[I:staff +1]A,G, | %9
 (3(E,[I:staff -1]B,[I:staff +1]G,[I:staff -1](3EB,[I:staff +1]G, (3(^F,)[I:staff -1]B,[I:staff +1]A,)[I:staff -1](3^DB,[I:staff +1]A, | %10
 (3(E,[I:staff -1]B,[I:staff +1]G,[I:staff -1](3EB,[I:staff +1]G,!pp! (3(E,)[I:staff -1]B,[I:staff +1]G,)[I:staff -1](3EB,[I:staff +1]G, | %11
 (3(F,[I:staff -1]B,[I:staff +1]G,[I:staff -1](3DB,[I:staff +1]G, (3(F,)[I:staff -1]B,[I:staff +1]G,)[I:staff -1](3DB,[I:staff +1]G, | %12
 (3(E,[I:staff -1]C[I:staff +1]G,[I:staff -1](3EC[I:staff +1]G, (3(E,)[I:staff -1]C[I:staff +1]G,)[I:staff -1](3EC[I:staff +1]G, | %13
 (3(F,[I:staff -1]B,[I:staff +1]G,[I:staff -1](3DB,[I:staff +1]G, (3(F,)[I:staff -1]B,[I:staff +1]G,)[I:staff -1](3DB,[I:staff +1]G, | %14
 (3(E,[I:staff -1]C[I:staff +1]G,[I:staff -1](3EC[I:staff +1]G, (3(E,)[I:staff -1]C[I:staff +1]G,)[I:staff -1](3EC[I:staff +1]G, | %15
!f! (3(E,[I:staff -1]C[I:staff +1]A,[I:staff -1](3EC[I:staff +1]A, (3(E,)[I:staff -1]C[I:staff +1]A,)[I:staff -1](3EC[I:staff +1]A, | %16
 (3(E,[I:staff -1]B,[I:staff +1]G,[I:staff -1](3EB,[I:staff +1]G, (3(E,)[I:staff -1]B,[I:staff +1]G,)[I:staff -1](3EB,[I:staff +1]G, | %17
 (3(F,[I:staff -1]D[I:staff +1]A,[I:staff -1](3FD[I:staff +1]A, (3(F,)[I:staff -1]D[I:staff +1]A,)[I:staff -1](3FD[I:staff +1]A, | %18
 (3(E,[I:staff -1]C[I:staff +1]A,[I:staff -1](3EC[I:staff +1]A, (3(E,)[I:staff -1]C[I:staff +1]A,)[I:staff -1](3EC[I:staff +1]A, | %19
 (3(E,[I:staff -1]C[I:staff +1]G,[I:staff -1](3EC[I:staff +1]G, (3(D,)[I:staff -1]B,[I:staff +1]G,)[I:staff -1](3DB,[I:staff +1]G, | %20
 (3(G,[I:staff -1]E[I:staff +1]C[I:staff -1](3GE[I:staff +1]C (3(F,)[I:staff -1]C[I:staff +1]A,)[I:staff -1](3FC[I:staff +1]A, | %21
 (3(E,[I:staff -1]C[I:staff +1]G,[I:staff -1](3EC[I:staff +1]G, (3(F,)[I:staff -1]B,[I:staff +1]G,)[I:staff -1](3DB,[I:staff +1]G, | %22
 (3(E,[I:staff -1]C[I:staff +1]G,[I:staff -1](3EC[I:staff +1]G, (3(E,)[I:staff -1]C[I:staff +1]G,)[I:staff -1](3EC[I:staff +1]G, | %23
 (3(D,[I:staff -1]B,[I:staff +1]G,[I:staff -1](3DB,[I:staff +1]G, (3(D,)[I:staff -1]B,[I:staff +1]G,)[I:staff -1](3DB,[I:staff +1]G, | %24
 (3(G,[I:staff -1]E[I:staff +1]C[I:staff -1](3GE[I:staff +1]C (3(F,)[I:staff -1]D[I:staff +1]A,)[I:staff -1](3FD[I:staff +1]A, | %25
 (3E,[I:staff -1]C[I:staff +1]G,[I:staff -1](3EC[I:staff +1]G,[I:staff -1] [B,D]2 z2 | %26
 [C,G,C]2 z2!ff! [CGc]2- [CGc]>[CGB] | [CFB]4 [DFA]2 [DFA]>[DFA] | [FGdf]4 [EGce]2 [FAd]2 | %29
 [EGc]4{ABc} TB3 c/d/ | [Ec]4 z4 :| z8 |] %32
V:3
 [C,,G,,C,]8 |: [C,,G,,C,]8 | [C,,G,,C,]4 [F,,C,]4 | [C,,G,,C,]8 | [G,,,G,,]8 | [C,,G,,C,]8 | %6
 [C,,G,,C,]8 | [C,,G,,C,]4 [F,,C,]4 | [C,,G,,C,]4 [C,,C,]4 | [B,,,B,,]4 [B,,,B,,]4 | E,,8 | x8 | %12
 x8 | x8 | z6 G,,2 | x8 | x8 | x8 | x8 | x8 | x8 | x8 | x8 | x8 | x8 | x8 | %26
 (3C,,E,,G,,(3C,G,E, (3E,,G,,C,(3E,C,G,, | (3F,,A,,C,(3F,C,A,, (3D,,F,,A,,(3D,A,,F,, | %28
 (3B,,,D,,G,,(3B,,G,,D,, (3C,,G,,C,(3G,,,D,,F,, | (3G,,,C,,E,,(3G,,E,,C,, (3G,,,D,,F,,(3G,,F,,D,, | %30
 (3C,,E,,G,,(3C,E,G, (3CG,E,(3C,G,,E,, :| C,8 |] %32
V:4
 x8 |: x8 | x8 | x8 | x8 | x8 | x8 | x8 | x8 | x8 | x8 | B,,2 G,,2 B,,2 G,,2 | C,2 G,,2 C,2 G,,2 | %13
 B,,2 G,,2 B,,2 G,,2 | C,2 G,,2 C,2 x2 | x8 | x8 | x8 | x8 | x8 | x8 | x8 | x8 | x8 | x8 | %25
 x4 [F,G,]2 z2 | x8 | x8 | x8 | x8 | x8 :| x8 |] %32
V:5
 x8 |: x8 | x8 | x8 | x8 | x8 | x8 | x8 | x8 | x8 | x8 | B,,,8 | C,,8 | B,,,8 | C,,8 | %15
{A,,,E,,} [A,,,A,,]8 |{E,,,B,,,} [E,,,E,,]8 |{D,,,A,,,} [D,,,D,,]8 |{A,,,E,,} [A,,,A,,]8 | %19
 [G,,,G,,]4 [F,,,F,,]4 | [E,,,E,,]4 [F,,,F,,]4 | [G,,,G,,]4 [G,,,G,,]4 | %22
 !>![C,,,C,,]2 !>![E,,,E,,]2 !>![G,,,G,,]2 !>![C,,C,]2 | [G,,,G,,]4 [F,,,F,,]4 | %24
 [E,,,E,,]4 [F,,,F,,]4 | [G,,,G,,]4 [G,,,G,,]2 z2 | x8 | x8 | x8 | x8 | x8 :| x8 |] %32
V:6
 x8 |: x8 | x8 | x8 | x8 | x8 | x8 | x8 | x8 | x8 | x8 | x8 | x8 | x8 | x8 | x8 | x8 | x8 | x8 | %19
 x8 | x8 | x8 | x8 | x8 | x8 | x8 | x8 | x8 | x8 | x4 F4 | x8 :| x8 |] %32

